X:1
T:The Heights of Alma
M:2/4
L:1/8
K:C
 D| AA AG| AD DE| G3/2 A/2 GE| CD ED| DA A/2 G3/2| AB c d/2d/2| cA GE|\
 D2| D3/2 A/2| Ad d c/2d/2| ed dB| cd cA| G/2 A3/2 c3/2 G/2| Ad d c/2d/2|\
 ed dA| cA GE| D2 D||
